X:1
T:James Gibb editions
T:Adoramus te - Gasparini
T:#
%%score [ 1 2 3 4 ]
L:1/8
Q:1/4=72
M:4/4
K:Eb
V:1 treble nm="Soprano" snm="S"
V:2 treble nm="Alto" snm="A"
V:3 treble-8 nm="Tenor" snm="T"
V:4 bass nm="Bass" snm="B"
V:1
"^Quirino Gasparini\n(1721-78)""^Adoramus te, Christe" z2!pp! !>!G3 G (c2- | c2 B4 A2) | %2
w: A- do- ra\-||
 G2 G4 !>!F2- | F2!p! =E2 F2 A2 | A2 A2 G4- |[M:4/4] G2 FE (F2 ^F2) | !fermata!G4 z4 | z8 | z8 | %9
w: mus te, Chri\-|* * ste, et|be- ne- di\-|* ci- mus ti\- *|bi,|||
!mf! c4 dedc | =BG (c4 B2) | c4 z4 | z4!f! d4 | efed c4- | c2 B2 =A4 | G2!mf! !>!G3 GcB | %16
w: qui- a per sanc- tam|cru- cem tu\- *|am,|qui-|a per san- ctam cru\-|* cem tu-|am re- de- mi- sti|
 (A2 =A2) B4- | B4 z2 EE | F2 (GA) (Bc d2- | d2 c=B c4) | =B4!p! G3 G | A4 G2 (!>!G2- | %22
w: mun\- * dum,|* re- de-|mi- sti * mun\- * *||dum, re- de-|mi- sti, re\-|
 GA)[Q:1/4=71] (G[Q:1/4=70]F)[Q:1/4=69] E3[Q:1/4=67] E |!pp![Q:1/4=64] D8 | %24
w: * * de\- * mi- sti|mun-|
[Q:1/4=62] !fermata!=E8 |] %25
w: dum.|
V:2
!pp! E4 =E4 | (FAGF) =EE F2- | F2 =E2 z2 C2 |!p! C4 C2 F2 | F2 F2 F2 EE |[M:4/4] (E2 FG FEDC) | %6
w: A- do-|ra\- * * * mus te, Chri\-|* ste, te,|Chri- ste, et|be- ne- di- ci- mus|ti\- * * * * * *|
 !fermata!=B,4!mf! G4 | ABAG F4- | F2 E2 D2 GF | E2 E2 F2 A2 | G4 F2 z2 |!f! G4 =ABAG | %12
w: bi, qui-|a per san- ctam cru\-|* cem tu- am, per|san- ctam cru- cem|tu- am|qui- a per san- ctam|
 ^FD (G4 F2) | G4 z4 | z4 z2!mf! !>!D2- | DDGF (E2 =E2) | F8 | GA B3 B (A2- | A2 G2 F4 | E8) | %20
w: cru- cem tu\- *|am|re\-|* de- mi- sti mun\- *|dum,|re- de- mi- sti mun\-|||
 D4 z2!p! (!>!G2- | G2 !>!F4) !>!E2 | D2 D4!pp! (C2- | C2 =B,=A, B,4) | !fermata!C8 |] %25
w: dum, re\-|* * de-|mi- sti mun\-||dum.|
V:3
!pp! c4 c4 | _d4 c2 (!>!c2- | c_d) (cB) A2 AA |!p! G4 A2 c2 | =B3 c d2 cc | %5
w: A- do-|ra- mus A\-|* * do\- * ra- mus te,|Chri- ste, et|be- ne- di- ci- mus|
[M:4/4][K:treble-8] (c6 d2) | !fermata!d4 z4 |!mf! c4 dedc | =BG (c4 B2) | c4 z4 | z4!f! d4 | %11
w: ti\- *|bi,|qui- a per san- ctam|cru- cem tu\- *|am,|qui-|
 efed c4- | c2 B2 (=A2 dc) | B2 B2 c2 e2 | d3 d c2 =A2 |!mf! BB =B2 c2 c2- | ccfe (_d2 =d2) | %17
w: a per san- ctam cru\-|* cem tu\- * *|am, per san- ctam|cru- cem tu- am|re- de- mi- sti, re\-|* de- mi- sti mun\- *|
 e2 gf e4 | d2 (e4 d2) | G8- | G2!p! =B4 B2 | (cedc) =B2 (c2- | c2 =B=A!pp! G4- | G8) | %24
w: dum, re- de- mi-|sti mun\- *|dum,|* re- de-|mi\- * * * sti mun\-|||
 !fermata!G8 |] %25
w: dum.|
V:4
!pp! C,4 C,4 | C,4 C,2 C,2 | C,8- |!p! C,4 F,2 (F,E,) | (!courtesy!=D,E,) (D,C,) =B,,2 C,C, | %5
w: A- do-|ra- mus te,|Chri\-|* ste, et *|be\- * ne\- * di- ci- mus|
[M:4/4] A,8 | !fermata!G,4 z4 | z8 | z4!mf! G,4 | A,B,A,G, F,4- | F,2 E,2 (D,2 G,2) | C,4 z4 | z8 | %13
w: ti-|bi,||qui-|a per sanc- tam cru\-|* cem tu\- *|am||
!f! G,4 =A,B,A,G, | ^F,D, (G,4 F,2) | G,4 z4 | z2!mf! !>!!courtesy!=F,3 F,B,!courtesy!_A, | %17
w: qui- a per san- ctam|cru- cem tu\- *|am|re- de- mi- sti|
 (G,F,E,D, C,4 | B,,6 =B,,2 | C,8) | G,,4!p! G,4 | G,4 G,4 | G,4!pp! (G,4- | G,4 G,,4) | %24
w: mun\- * * * *|||dum, re-|de- mi-|sti mun\-||
 !fermata!C,8 |] %25
w: dum,|

